src/svg/argo-mascot.svg

<svg fill="none" height="194" viewBox="0 0 150 194" width="150" xmlns="http://www.w3.org/2000/svg" xmlns:xlink="http://www.w3.org/1999/xlink"><linearGradient id="a" gradientUnits="userSpaceOnUse" x1="75" x2="106.522" y1="17.4121" y2="125.731"><stop offset="0" stop-color="#5e6294"/><stop offset="1" stop-color="#878bb2"/></linearGradient><circle cx="75" cy="72.3164" fill="url(#a)" opacity=".2" r="54.9043"/><path clip-rule="evenodd" d="m75 140.857c37.854 0 68.541-30.687 68.541-68.5409 0-37.854-30.687-68.54071-68.541-68.54071s-68.54068 30.68671-68.54068 68.54071c0 37.8539 30.68668 68.5409 68.54068 68.5409zm0-13.637c30.323 0 54.904-24.581 54.904-54.904 0-30.3228-24.581-54.9043-54.904-54.9043-30.3228 0-54.9043 24.5815-54.9043 54.9043 0 30.323 24.5815 54.904 54.9043 54.904z" fill="#5e6294" fill-rule="evenodd" opacity=".14"/><path d="m43.6259 101.083c-7.5104-3.2527-12.7647-10.7311-12.7647-19.4368 0-8.14 4.5937-15.2071 11.3302-18.7504-.4671-18.6096 14.4964-34.0008 33.1675-34.0008 18.671 0 33.6341 15.3912 33.1671 34.0008 6.737 3.5433 11.33 10.6104 11.33 18.7504 0 8.7057-5.254 16.1841-12.764 19.4368l-1.226 32.572c.351 8.432 2.893 9.131 12.457 11.761.923.253 1.911.525 2.969.824-7.878 1.8-12.827 2.048-15.941 1.108l-.566 15.04c-1.264 14.215-1.137 14.248 8.458 16.745 1.305.34 2.785.725 4.46 1.197-20.6605 4.723-20.9294-4.635-21.1727-13.097-.0486-1.691-.0962-3.346-.305-4.845h-.7701c-.0462.569-.0913 1.122-.135 1.659l-.0011.014c-.9638 11.835-1.2946 15.897.5635 17.688.9709.936 2.5396 1.252 4.9274 1.734 2.498.503 5.891 1.186 10.434 2.948-24.362 3.392-24.3434-4.346-24.3117-17.521.005-2.05.0102-4.231-.076-6.522h-.7313c-1.1292 25.397.1829 25.719 8.8219 27.838 2.347.576 5.2351 1.284 8.7611 2.664-24.8261 2.759-25.8195-4.296-27.3498-15.164-.2711-1.926-.5591-3.971-.9993-6.102-.4403 2.131-.7283 4.176-.9993 6.102-1.5303 10.868-2.5238 17.923-27.35 15.164 3.5265-1.38 6.4142-2.088 8.7612-2.664 8.639-2.119 9.9511-2.441 8.8219-27.838h-.7313c-.0862 2.291-.0809 4.472-.076 6.522.0317 13.175.0503 20.913-24.3117 17.521 4.5431-1.762 7.9364-2.445 10.4335-2.948 2.3883-.482 3.957-.798 4.9279-1.734 1.8581-1.791 1.5273-5.853.5635-17.688-.0441-.541-.0895-1.099-.1361-1.673h-.77c-.2089 1.499-.2565 3.154-.3051 4.845-.2432 8.462-.5122 17.82-21.1724 13.097 1.6751-.472 3.1548-.857 4.4595-1.197 9.5953-2.497 9.7221-2.53 8.4585-16.745l-.566-15.04c-3.1148.94-8.0632.692-15.9412-1.108 1.058-.299 2.0462-.571 2.969-.824 9.5639-2.63 12.1059-3.329 12.4569-11.761z" fill="#ef7b4d"/><circle cx="50.9569" cy="82.0053" fill="#fefefe" r="15.7895"/><circle cx="50.5981" cy="79.4931" fill="#000" r="5.38278"/><circle cx="97.6077" cy="82.0053" fill="#fefefe" r="15.7895"/><circle cx="97.2488" cy="79.4931" fill="#000" r="5.38278"/><path d="m63.1579 111.431s5.7416 5.741 12.2009 5.741c6.4594 0 12.201-5.741 12.201-5.741v7.177c0 6.738-5.4626 12.201-12.201 12.201s-12.2009-5.463-12.2009-12.201z" fill="#fafafa"/><path d="m63.1579 117.172s5.7416 5.742 12.2009 5.742c6.4594 0 12.201-5.742 12.201-5.742v1.436c0 6.738-5.4626 12.201-12.201 12.201s-12.2009-5.463-12.2009-12.201z" fill="#202124"/><path d="m29.4129 106.647c-7.1369-9.4818-11.3875-21.2634-11.4401-34.0437-.0849-20.5964 10.7539-38.6889 27.072-48.7879" opacity=".16" stroke="#5e6294" stroke-linecap="round" stroke-width="4.30622"/><g fill="#5e6294"><circle cx="52.3923" cy="18.8474" opacity=".45" r="2.87081"/><rect height="33.0144" rx="2.87081" width="6.45933" y="56.168"/><rect height="33.0144" rx="2.87081" width="6.45933" x="143.541" y="56.168"/><path clip-rule="evenodd" d="m75 144.445c39.836 0 72.129-32.293 72.129-72.1288 0-39.8359-32.293-72.129188-72.129-72.129188-39.8358 0-72.12918 32.293288-72.12918 72.129188 0 39.8358 32.29338 72.1288 72.12918 72.1288zm0-3.588c37.854 0 68.541-30.687 68.541-68.5407 0-37.854-30.687-68.5407-68.541-68.5407s-68.54069 30.6867-68.54069 68.5407c0 37.8537 30.68669 68.5407 68.54069 68.5407z" fill-opacity=".2" fill-rule="evenodd"/></g><path d="m67.7847 45.1095c-.7213 3.3756-3.6526 5.6106-6.5473 4.992-2.8947-.6185-4.7506-3.3207-4.0293-6.6963s5.1328-6.9616 8.0275-6.343c2.8946.6185 3.2704 4.6717 2.5491 8.0473z" fill="#f77f4f"/></svg>

<svg width="150" height="194" viewBox="0 0 150 194" fill="none" xmlns="http://www.w3.org/2000/svg">
<circle opacity="0.2" cx="75" cy="72.3164" r="54.9043" fill="url(#footerargocircle)"/>
<path opacity="0.14" fill-rule="evenodd" clip-rule="evenodd" d="M75 140.857C112.854 140.857 143.541 110.17 143.541 72.3161C143.541 34.4621 112.854 3.77539 75 3.77539C37.146 3.77539 6.45932 34.4621 6.45932 72.3161C6.45932 110.17 37.146 140.857 75 140.857ZM75 127.22C105.323 127.22 129.904 102.639 129.904 72.316C129.904 41.9932 105.323 17.4117 75 17.4117C44.6772 17.4117 20.0957 41.9932 20.0957 72.316C20.0957 102.639 44.6772 127.22 75 127.22Z" fill="#5E6294"/>
<path d="M43.6259 101.083C36.1155 97.8303 30.8612 90.3519 30.8612 81.6462C30.8612 73.5062 35.4549 66.4391 42.1914 62.8958C41.7243 44.2862 56.6878 28.895 75.3589 28.895C94.0299 28.895 108.993 44.2862 108.526 62.8958C115.263 66.4391 119.856 73.5062 119.856 81.6462C119.856 90.3519 114.602 97.8303 107.092 101.083L105.866 133.655C106.217 142.087 108.759 142.786 118.323 145.416C119.246 145.669 120.234 145.941 121.292 146.24C113.414 148.04 108.465 148.288 105.351 147.348L104.785 162.388C103.521 176.603 103.648 176.636 113.243 179.133C114.548 179.473 116.028 179.858 117.703 180.33C97.0425 185.053 96.7736 175.695 96.5303 167.233C96.4817 165.542 96.4341 163.887 96.2253 162.388H95.4552C95.409 162.957 95.3639 163.51 95.3202 164.047L95.3191 164.061C94.3553 175.896 94.0245 179.958 95.8826 181.749C96.8535 182.685 98.4222 183.001 100.81 183.483C103.308 183.986 106.701 184.669 111.244 186.431C86.882 189.823 86.9006 182.085 86.9323 168.91C86.9373 166.86 86.9425 164.679 86.8563 162.388H86.125C84.9958 187.785 86.3079 188.107 94.9469 190.226C97.2939 190.802 100.182 191.51 103.708 192.89C78.8819 195.649 77.8885 188.594 76.3582 177.726C76.0871 175.8 75.7991 173.755 75.3589 171.624C74.9186 173.755 74.6306 175.8 74.3596 177.726C72.8293 188.594 71.8358 195.649 47.0096 192.89C50.5361 191.51 53.4238 190.802 55.7708 190.226C64.4098 188.107 65.7219 187.785 64.5927 162.388H63.8614C63.7752 164.679 63.7805 166.86 63.7854 168.91C63.8171 182.085 63.8357 189.823 39.4737 186.431C44.0168 184.669 47.4101 183.986 49.9072 183.483C52.2955 183.001 53.8642 182.685 54.8351 181.749C56.6932 179.958 56.3624 175.896 55.3986 164.061C55.3545 163.52 55.3091 162.962 55.2625 162.388H54.4925C54.2836 163.887 54.236 165.542 54.1874 167.233C53.9442 175.695 53.6752 185.053 33.015 180.33C34.6901 179.858 36.1698 179.473 37.4745 179.133C47.0698 176.636 47.1966 176.603 45.933 162.388L45.367 147.348C42.2522 148.288 37.3038 148.04 29.4258 146.24C30.4838 145.941 31.472 145.669 32.3948 145.416C41.9587 142.786 44.5007 142.087 44.8517 133.655L43.6259 101.083Z" fill="#EF7B4D"/>
<circle cx="50.9569" cy="82.0053" r="15.7895" fill="#FEFEFE"/>
<circle cx="50.5981" cy="79.4931" r="5.38278" fill="black"/>
<circle cx="97.6077" cy="82.0053" r="15.7895" fill="#FEFEFE"/>
<circle cx="97.2488" cy="79.4931" r="5.38278" fill="black"/>
<path d="M63.1579 111.431C63.1579 111.431 68.8995 117.172 75.3588 117.172C81.8182 117.172 87.5598 111.431 87.5598 111.431V118.608C87.5598 125.346 82.0972 130.809 75.3588 130.809C68.6204 130.809 63.1579 125.346 63.1579 118.608V111.431Z" fill="#FAFAFA"/>
<path d="M63.1579 117.172C63.1579 117.172 68.8995 122.914 75.3588 122.914C81.8182 122.914 87.5598 117.172 87.5598 117.172V118.608C87.5598 125.346 82.0972 130.809 75.3588 130.809C68.6204 130.809 63.1579 125.346 63.1579 118.608V117.172Z" fill="#202124"/>
<path opacity="0.16" d="M29.4129 106.647C22.276 97.1652 18.0254 85.3836 17.9728 72.6033C17.8879 52.0069 28.7267 33.9144 45.0448 23.8154" stroke="#5E6294" stroke-width="4.30622" stroke-linecap="round"/>
<circle opacity="0.45" cx="52.3923" cy="18.8474" r="2.87081" fill="#5E6294"/>
<rect y="56.168" width="6.45933" height="33.0144" rx="2.87081" fill="#5E6294"/>
<rect x="143.541" y="56.168" width="6.45933" height="33.0144" rx="2.87081" fill="#5E6294"/>
<path fill-rule="evenodd" clip-rule="evenodd" d="M75 144.445C114.836 144.445 147.129 112.152 147.129 72.3162C147.129 32.4803 114.836 0.187012 75 0.187012C35.1642 0.187012 2.87082 32.4803 2.87082 72.3162C2.87082 112.152 35.1642 144.445 75 144.445ZM75 140.857C112.854 140.857 143.541 110.17 143.541 72.3163C143.541 34.4623 112.854 3.7756 75 3.7756C37.146 3.7756 6.45931 34.4623 6.45931 72.3163C6.45931 110.17 37.146 140.857 75 140.857Z" fill="#5E6294" fill-opacity="0.2"/>
<path d="M67.7847 45.1095C67.0634 48.4851 64.1321 50.7201 61.2374 50.1015C58.3427 49.483 56.4868 46.7808 57.2081 43.4052C57.9294 40.0296 62.3409 36.4436 65.2356 37.0622C68.1302 37.6807 68.506 41.7339 67.7847 45.1095Z" fill="#F77F4F"/>
<defs>
<linearGradient id="footerargocircle" x1="75" y1="17.4121" x2="106.522" y2="125.731" gradientUnits="userSpaceOnUse">
<stop stop-color="#5E6294"/>
<stop offset="1" stop-color="#878BB2"/>
</linearGradient>
</defs>
</svg>
